config/_h5ai/public/images/ui/download.svg

<svg xmlns:svg="http://www.w3.org/2000/svg" xmlns="http://www.w3.org/2000/svg" width="24" height="24" viewBox="0 0 24 24" version="1.1">
  <path d="M19 9h-4v-6h-6v6h-4l7 7 7-7zm-14 9v2h14v-2h-14z" fill="#555"/>
</svg>

<svg width="24" height="24" viewBox="0 0 24 24" fill="none" xmlns="http://www.w3.org/2000/svg">
<path d="M19 9H15V3H9V9H5L12 16L19 9ZM5 18V20H19V18H5Z" fill="#CBA6F7"/>
</svg>
